X:1
T:Wachet auf, ruft uns die Stimme (Sleepers, Awake! A Voice Is Calling)
T:Johann Sebastian Bach
%%score { 1 | 2 }
L:1/8
M:4/4
K:Eb
V:1 treble nm="Piano"
V:2 bass 
V:1
 B, | E/F/G GF AGB,A, | G/E/F A,G, DE z B, | E/F/G GF AGB,A, | G/E/F A,G, DE z B | %5
 B2 A/G/F/E/ F/E/D/C/ B,C/D/ | E/F/G/F/ A/G/F/E/ GF z B, | G =A2 B{/F} E/D/E z C | %8
 =A B2 c{/F} E/D/E z e | d/c/B B/=A/B- B/A/G/F/ E/D/C/B,/ | C/D/E{/F} E/D/E- E/=A/B/c/ B/A/G/F/ | %11
 BF DC/B,/ B,/E/D/C/ DB,/>=A,/ | G,>=A, B,3/2G,/4=A,/4 B,2 z B, | E/F/G GF AGB,A, | %14
 G/E/F A,G, DE z B, | E/F/G GF AGB,A, | G/E/F A,G, DE z F | G =A2 B{/F} E/D/E z E | %18
 =A B2 c{/G} F/E/F z z | z2 z B B2 A/G/F/E/ | F/E/D/C/ B,C/D/ E/F/G/F/ A/G/F/E/ | GF z z4 B, | %22
 E/F/G GF AGB,A, | GF z z2 z z B | B2 A/G/F/E/ F/E/D/C/ B,C/D/ | E/F/G/F/ A/G/F/E/ GF z B, | %26
 G =A2 B{/F} E/D/E z C | =A B2 c{/F} E/D/E z e | d/c/B B/=A/B- B/A/G/F/ E/D/C/B,/ | %29
 C/D/E{/F} E/D/E- E/=A/B/c/ B/A/G/F/ | BF DC/B,/ B,/E/D/C/ DB,/>=A,/ | %31
 G,>=A, B,3/2G,/4=A,/4 B,2 z D | E F2 G B,/A,/B, z B | B2 A/G/F/E/ F/E/D/C/ B,C/D/ | %34
 E/F/G/F/ A/G/F/E/ GF z2 | z2 z G c/d/e ed | feGF e/c/d FE | =Bc z G G2 F/E/D/C/ | %38
 D/C/=B,/=A,/ G,A,/B,/ C/D/E/D/ F/E/D/C/ | ED z G, E ^F2 G |{/D} C/B,/=C z =A, _G =G2 =A | %41
{/D} C/B,/C z c B/=A/G- G/^F/G- | G/F/E/D/ C/B,/=A,/G,/ A,/B,/C- C/B,/C- | %43
 C/^F/G/=A/ G/F/=E/D/ GD B,=A,/G,/ | G,2 z2 z2 z B, | E/F/G GF AGB,A, | G/E/F A,G, DE z2 | %47
 z2 z B B2 A/G/F/E/ | F/E/D/C/ B,C/D/ E/F/G/F/ A/G/F/E/ | GF z E c d2 e | A/G/A z c d e2 f | %51
{/B} A/G/A z F G/F/E- E/D/E- | E/_d/c/B/ A/G/F/E/ F/G/A- A/G/A- | A/D/E/F/ E/D/C/B,/ GE G/F/E/F/ | %54
 E/A/G/F/ GE/>D/ C>D D>E | E8 |] %56
V:2
 z | E,,2 E,,2 E,,2 G,,2 | A,,2 B,,2 E,,2 z2 | E,,2 E,,2 E,,2 G,,2 | A,,2 B,,2 E,,2 z2 | %5
 G,,2 C,2 B,,2 A,,2 | G,,2 E,,2 B,,2 D,2 | E,2 D,2 C,2 E,2 | F,2 G,2 =A,2 F,2 | B,2 =A,2 G,2 F,2 | %10
 E,2 D,2 C,2 E,2 | D,B,,F,F,, G,,=A,,B,,D,, | E,,C,,F,,-F,, B,,C,B,,A,, | G,,F,,E,,D,, C,,2 C,2 | %14
 G,,2 B,,2 E,,2 G,,2 | A,,2 A,2 D,2 E,2 | C,2 D,2 E,2 D,2 | C,2 G,,2 C,D, E,2 | %18
 E,D,G,,=A,, B,,D,,E,,F,, | D,=A,,B,,C, D,B,, E,2 | B,,2 A,,2 G,,2 E,,2 | A,,B,, C,2 F,,2 B,,A,, | %22
 G,,2 E,2 D,2 E,2 | A,,B,, C,2 F,,2 B,,A,, | G,,2 C,2 B,,2 A,,2 | G,,2 E,,2 B,,2 D,2 | %26
 E,2 D,2 C,2 E,2 | F,2 G,2 =A,2 F,2 | B,2 =A,2 G,2 F,2 | E,2 D,2 C,2 E,2 | %30
 D,B,,F,F,, G,,=A,,B,,D,, | E,,C,, F,,2 B,,C,B,,A,, | G,,F,,E,,D,, E,,G,,A,,B,, | %33
 C,D, E,2 B,,2 A,,2 | G,,2 E,,2 B,,C,D,B,, | E,D,C,=B,, C,G,CB, | =A,2 E,2 F,2 G,2 | %37
 =A,G,F,=E, F,_E,D,C, | =B,,G,,G,F, E,2 C,2 | G,2 =B,2 C2 _B,2 | =A,2 C,2 D,2 E,2 | %41
 _G,,2 D,,2 =G,,2 F,,2 | E,2 D,2 C,2 B,,2 | =A,,2 C,2 B,,G,,D,D,, | G,,E,,F,,G,, A,,G,,A,,B,, | %45
 C,B,,C,D, E,2 C,2 | A,,2 B,,2 C,B,,C,D, | E,D,E,F, G,F,G,A, | D,B,,B,A, G,2 E,2 | %49
 B,A, G,2 A,2 G,2 | F,2 E,2 F,2 B,,2 | C,2 A,,2 B,,2 G,,2 | A,,G,,F,,E,, D,,2 F,,2 | %53
 B,,C,B,,A,, G,,C,A,,B,, | C,D,E,G, A,F,B,B,, | E,8 |] %56

